modules/hawcons-stroke/icons/folder-locked.svg

<?xml version="1.0" encoding="UTF-8" standalone="no"?>
<svg width="32px" height="32px" viewBox="0 0 32 32" version="1.1" xmlns="http://www.w3.org/2000/svg" xmlns:xlink="http://www.w3.org/1999/xlink" xmlns:sketch="http://www.bohemiancoding.com/sketch/ns">
    <!-- Generator: Sketch 3.0.3 (7891) - http://www.bohemiancoding.com/sketch -->
    <title>icon 100 folder locked</title>
    <desc>Created with Sketch.</desc>
    <defs></defs>
    <g id="Page-1" stroke="none" stroke-width="1" fill="none" fill-rule="evenodd" sketch:type="MSPage">
        <g id="icon-100-folder-locked" sketch:type="MSArtboardGroup" fill="#929292">
            <path d="M23,25 L1.99296544,25 C1.44610862,25 1,24.5559546 1,24.0081969 L1,13 L28,13 L28,16.035623 C27.8366558,16.0121474 27.6697139,16 27.5,16 C25.5670034,16 24,17.5676804 24,19.5054058 L24,21 L23.9975446,21 C23.446616,21 23,21.4378814 23,22.0029293 L23,25 L23,25 L23,25 Z M23,26 L1.99328744,26 C0.899712682,26 0,25.1085295 0,24.008845 L0,5.991155 C0,4.88967395 0.896666251,4 2.00276013,4 L13,4 L15,8 L26.9941413,8 C28.1029399,8 29,8.8932319 29,9.99508929 L29,16.33815 C30.1812117,16.9010994 31,18.1077256 31,19.5054058 L31,21 L31.0024554,21 C31.5536886,21 32,21.4490268 32,22.0029293 L32,26.9970707 C32,27.5621186 31.553384,28 31.0024554,28 L23.9975446,28 C23.4463114,28 23,27.5509732 23,26.9970707 L23,26 L23,26 L23,26 Z M25,21 L25,19.5093004 C25,18.1123657 26.1192881,17 27.5,17 C28.8903379,17 30,18.123452 30,19.5093004 L30,21 L25,21 L25,21 L25,21 Z M1,12 L1,5.99180311 C1,5.45530558 1.44401481,5 1.99173483,5 L12.4000244,5 L14.3599854,9 L26.9970172,9 C27.5461723,9 28,9.4481055 28,10.0008717 L28,12 L1,12 L1,12 L1,12 Z M24.5034227,22 C24.22539,22 24,22.2148438 24,22.4976988 L24,26.5023012 C24,26.7771727 24.2329025,27 24.5034227,27 L30.4965773,27 C30.77461,27 31,26.7851562 31,26.5023012 L31,22.4976988 C31,22.2228273 30.7670975,22 30.4965773,22 L24.5034227,22 L24.5034227,22 Z" id="folder-locked" sketch:type="MSShapeGroup"></path>
        </g>
    </g>
</svg>

<svg width="32" height="32" viewBox="0 0 32 32" xmlns="http://www.w3.org/2000/svg"><path d="M23 25H1.993A.993.993 0 0 1 1 24.008V13h27v3.036a3.502 3.502 0 0 0-4 3.47V21h-.002A.993.993 0 0 0 23 22.003V25zm0 1H1.993A1.997 1.997 0 0 1 0 24.009V5.99C0 4.89.897 4 2.003 4H13l2 4h11.994A2 2 0 0 1 29 9.995v6.343c1.181.563 2 1.77 2 3.167V21h.002A1 1 0 0 1 32 22.003v4.994A.993.993 0 0 1 31.002 28h-7.004A1 1 0 0 1 23 26.997V26zm2-5v-1.49c0-1.398 1.12-2.51 2.5-2.51 1.39 0 2.5 1.123 2.5 2.51V21h-5zM1 12V5.992A1 1 0 0 1 1.992 5H12.4l1.96 4h12.637c.55 0 1.003.448 1.003 1v2H1zm23.503 10a.496.496 0 0 0-.503.498v4.004c0 .275.233.498.503.498h5.994a.496.496 0 0 0 .503-.498v-4.004a.505.505 0 0 0-.503-.498h-5.994z" fill="#929292" fill-rule="evenodd"/></svg>
